!!!!SEGMENT: pl-cz--iii-319--004_just-franciszek-kasper--missa-in-g-sanctus.krn
!!!cenid: 17xx:904
!!!COM: Just, Franciszek Kasper
!!!COM-rismID: pe30098311
!!!CDT: 1717-1760
!!!CNT: Czech
!!!OPR: Missa in G
!!!OTL: Sanctus
!!!OMV: 004
!!!PDT: 1755
!!!AGN: Sacred; Mass
!!!SMS-siglum: PL-CZ
!!!SMS-shelfmark: III-319
!!!SMS-shelfwork: 001-004 M
!!!SMS-variant: Organo: PL-CZ III-319:29
!!!SMS-altvar: Organo: PL-CZ III-319:31
!!!NIFC-rismSourceID: 300000544
!!!NIFC-rismChildID: 300000544
!!!NIFC-islandoraID: pl-cz:37529
!!!URL-pdf-islandora: https://repozytorium.nifc.pl/islandora/object/pl-cz%3A37529/datastream/PDF/view
!!!URL-scan: https://polish.musicsources.pl/pl/lokalizacje/galeria/rekopisy/6899/1 @EN{Scan on Polish Music Sources Website} @PL{Skany w portalu Dziedzictwo Muzyki Polskiej w otwartym dostępie}
!!!ONB-nifc: UWAGA: części Mszy: Kyrie, Gloria, Patrem, Sanctus, Osanna
!!!OMD: Adagio
!!!AIN: 1 alto 1 bass 2 cor 1 organ 1 soprn 1 tenor 2 violn
!!!key: G
**kern	**kern	**kern	**kern	**text	**kern	**text	**kern	**text	**kern	**text	**kern	**kern
*part9	*part8	*part7	*part6	*part6	*part5	*part5	*part4	*part4	*part3	*part3	*part2	*part1
*staff9	*staff8	*staff7	*staff6	*staff6	*staff5	*staff5	*staff4	*staff4	*staff3	*staff3	*staff2	*staff1
*I"Organo	*I"Violino Secundo	*I"Violino Primo	*I"Baſso.	*	*I"Tenore.	*	*I"Alto.	*	*I"Canto.	*	*I"Corno Secundo ex G.	*I"Corno Primo ex G.
*I'org (=bc)	*I'vl 2	*I'vl 1	*I'B	*	*I'T	*	*I'A	*	*I'S	*	*I'cor 2 in G	*I'cor 1 in G
*Iorgan	*Ivioln	*Ivioln	*Ibass	*	*Itenor	*	*Ialto	*	*Isoprn	*	*Icor	*Icor
*ICklav	*ICstr	*ICstr	*ICvox	*	*ICvox	*	*ICvox	*	*ICvox	*	*ICbras	*ICbras
*clefF4	*clefG2	*clefG2	*clefF4	*	*clefC4	*	*clefC3	*	*clefC1	*	*clefG2	*clefG2
*	*	*	*	*	*	*	*	*	*	*	*ITrd3c5	*ITrd3c5
*	*ok[f#f#]	*ok[f#f#]	*	*	*	*	*	*	*	*	*	*
*k[f#]	*k[f#]	*k[f#]	*k[f#]	*	*k[f#]	*	*k[f#]	*	*k[f#]	*	*k[f#]	*k[f#]
*G:	*G:	*G:	*G:	*	*G:	*	*G:	*	*G:	*	*G:	*G:
*M4/4	*M4/4	*M4/4	*M4/4	*	*M4/4	*	*M4/4	*	*M4/4	*	*M4/4	*M4/4
*met(c)	*met(c)	*met(c)	*met(c)	*	*met(c)	*	*met(c)	*	*met(c)	*	*met(c)	*met(c)
=1	=1	=1	=1	=1	=1	=1	=1	=1	=1	=1	=1	=1
!!LO:TX:t=P:problem:all\right or left:global
!LO:TX:t=P:problem=oznaczenie metryczne C z kropką	!	!LO:TX:t=P:problem=oznaczenie metryczne C z kropką	!LO:TX:t=P:problem=oznaczenie metryczne C z ogonkiem	!	!	!	!	!	!	!	!LO:TX:t=P:problem=oznaczenie metryczne C z kropką	!
!LO:TX:a:B:t=Adagio	!	!	!	!	!	!	!LO:TX:a:B:t=Adagio.	!	!	!	!LO:TX:a:B:t=Adagio	!
8GG/L	4r	8g/L	4G\	San-	4r	.	4r	.	8g\L	San-	8g\L	8g\L
8GG/	.	8b/	.	.	.	.	.	.	8b\	.	8g\	8b\
8BB/	8g/L	8dd/	8GG/L	.	4B\	San-	4g\	San-	8dd\	.	8b\	8dd\
8C/J	8b/J	8gg/J	8C/J	.	.	.	.	.	8gg\J	.	8g\J	8b\J
*	*	*	*	*	*2\right	*	*2\right	*	*	*	*	*
8D\L	8dd\L	16gg\LL	4D\	.	2d\	.	2a\	-ct(us),	16gg\LL	.	8d/L	8a\L
.	.	16ff#\	.	.	.	.	.	.	16ff#\	.	.	.
8D\	8dd\	16aa\	.	.	.	.	.	.	16aa\	.	8d/	8a\
.	.	16gg\JJ	.	.	.	.	.	.	16gg\JJ	.	.	.
8E\	8dd\	16ff#\LL	8E\L	.	.	.	.	.	16ff#\LL	.	8d/	8a\
.	.	16ee\	.	.	.	.	.	.	16ee\	.	.	.
8F#\J	8dd\J	16dd\	8F#\J	.	.	.	.	.	16dd\	.	8d/J	8a\J
.	.	16cc\JJ	.	.	.	.	.	.	16cc\JJ	.	.	.
=2	=2	=2	=2	=2	=2	=2	=2	=2	=2	=2	=2	=2
*	*	*	*	*	*	*	*	*ij	*	*	*	*
!LO:TX:t=P:problem=mixed beam	!	!	!	!	!	!	!	!	!	!	!	!
8G\L	16dd\LL	4b\	4G\	.	16d\LL	.	4a\	San-	4b\	.	4g\	4b\
.	16b\	.	.	.	16B\	.	.	.	.	.	.	.
8GG/	16dd\	.	.	.	16d\	.	.	.	.	.	.	.
.	16cc\JJ	.	.	.	16c\JJ	.	.	.	.	.	.	.
!	!	!	!	!	!	!	!	!	!LO:TX:t=P:global:problem=znak oddechu na 2 polu	!	!	!
8AA/	16b/LL	4dd\	8A\L	.	16B\LL	.	4g\	-ctus,	4dd,\	-ct(us),	4g\	4dd\
*	*	*	*	*	*	*	*	*Xij	*	*	*	*
.	16a/	.	.	.	16A\	.	.	.	.	.	.	.
8BB/J	16g/	.	8B\J	.	16G\	.	.	.	.	.	.	.
.	16f#/JJ	.	.	.	16F#\JJ	.	.	.	.	.	.	.
*	*	*	*	*	*	*	*	*	*	*ij	*	*
!	!	!	!	!	!LO:TX:t=P:global:problem=znak oddechu na 1 linii	!	!	!	!	!	!	!
8C/L	4e/	16dd\LL	4c\	.	4E,/	-ct(us),	2g\	San-	16dd\LL	San-	4g\	4dd\
.	.	16cc\	.	.	.	.	.	.	16cc\JJ	.	.	.
8C/	.	16ee\	.	.	.	.	.	.	16ee\LL	.	.	.
.	.	16dd\JJ	.	.	.	.	.	.	16dd\JJ	.	.	.
8C/	4ee\	16cc\LL	4C/	.	4e\	San-	.	.	16cc\LL	.	4g\	8cc\L
.	.	16b\	.	.	.	.	.	.	16b\	.	.	.
8C/J	.	16a\	.	.	.	.	.	.	16a\	.	.	8ee\J
.	.	16g\JJ	.	.	.	.	.	.	16g\JJ	.	.	.
=3	=3	=3	=3	=3	=3	=3	=3	=3	=3	=3	=3	=3
*	*	*	*2\right	*	*	*	*	*	*	*	*	*2\right
8D\L	16ee\LL	4f#/	2D\	.	16e\LL	.	2f#\	.	4f#/	.	4g\	2dd\
.	16dd\	.	.	.	16d\	.	.	.	.	.	.	.
8D\	16ff#\	.	.	.	16f#\	.	.	.	.	.	.	.
.	16ee\JJ	.	.	.	16e\JJ	.	.	.	.	.	.	.
8D\	16dd\LL	4ff#\	.	.	16d\LL	.	.	.	4ff#,\	-ctus,	4a\	.
.	16cc\	.	.	.	16c\	.	.	.	.	.	.	.
8D\J	16b\	.	.	.	16B\	.	.	.	.	.	.	.
.	16a\JJ	.	.	.	16A\JJ	.	.	.	.	.	.	.
!	!	!	!	!	!LO:LB:g=original	!	!	!	!	!	!	!
=-	=-	=-	=-	=-	=-	=-	=-	=-	=-	=-	=-	=-
8E\L	4g/	16ff#\LL	2E\	.	4G/	.	2g\	.	16ff#\LL	San-	4b\	2ee\
.	.	16ee\	.	.	.	.	.	.	16ee\	.	.	.
8E\	.	16gg\	.	.	.	.	.	.	16gg\	.	.	.
.	.	16ff#\JJ	.	.	.	.	.	.	16ff#\JJ	.	.	.
8E\	4gg\	16ee\LL	.	.	4g\	.	.	.	16ee\LL	.	4cc\	.
.	.	16dd\	.	.	.	.	.	.	16dd\	.	.	.
8E\J	.	16cc\	.	.	.	.	.	.	16cc\	.	.	.
.	.	16b\JJ	.	.	.	.	.	.	16b\JJ	.	.	.
=4	=4	=4	=4	=4	=4	=4	=4	=4	=4	=4	=4	=4
*	*	*	*	*	*	*	*	*	*	*	*2\right	*
!	!	!LO:TX:t=P:problem=mixed beam	!	!	!	!	!	!	!	!	!	!
8F#\L	16gg\LL	8a/L	2F#\	.	16g\LL	.	2a\	.	4a\	.	2a\	2dd\
.	16ff#\	.	.	.	16f#\	.	.	.	.	.	.	.
8F#\	16aa\	8aa\J	.	.	16a\	.	.	.	.	.	.	.
.	16gg\JJ	.	.	.	16g\JJ	.	.	.	.	.	.	.
!	!	!LO:TX:t=P:problem=mixed beam	!	!	!	!	!	!	!	!	!	!
8F#\	16ff#\LL	8a/L	.	.	16f#\LL	.	.	.	4aa\	.	.	.
.	16ee\	.	.	.	16e\	.	.	.	.	.	.	.
8F#\J	16dd\	8aa\J	.	.	16d\	.	.	.	.	.	.	.
.	16cc\JJ	.	.	.	16c\JJ	.	.	.	.	.	.	.
!LO:TX:t=P:problem=mixed beam	!	!LO:TX:t=P:problem=mixed beam	!	!	!	!	!	!	!	!	!	!
8G\L	8b/L	8gg\L	8G\	.	4B\	-ct(us)	8g\	.	8gg\	-ctus	4b\	4dd\
*	*	*	*	*	*	*	*	*	*	*Xij	*	*
8D\	8g/	8g/	8GG/	-ct(us)	.	.	8g\	-ctus	(8g\L	San-	.	.
8DD/	8b/	8b/	4r	.	4r	.	4r	.	8b\J)	.	4r	4r
8GG/J	8dd/J	8dd/J	.	.	.	.	.	.	8dd\	-ct(us)	.	.
=5	=5	=5	=5	=5	=5	=5	=5	=5	=5	=5	=5	=5
*	*2\right	*2\right	*	*	*	*	*	*	*	*	*	*
8r	2ee\	2gg\	8r	.	8r	.	8r	.	4gg\	Do-	8r	8r
8e\L	.	.	8d\	Do-	8e\	Do-	8a\	Do-	.	.	8a\L	8ee\L
8B\	.	.	8B\	-mi-	8e\	-mi-	8a\	-mi-	8gg\	-mi-	8a\	8cc#X\
8c#X\J	.	.	8c#X\	-nus	8e\	-n(us)	8a\	-nus	8gg\	-n(us)	8a\J	8cc#\J
!LO:LB:g=original	!	!	!	!	!	!	!	!	!	!	!	!
=-	=-	=-	=-	=-	=-	=-	=-	=-	=-	=-	=-	=-
!LO:TX:t=P:problem=mixed beam	!LO:TX:t=P:problem=mixed beam	!	!	!	!	!	!	!	!	!	!	!
8d\L	8ee\L	8ff#\L	8d\	De-	8d\	De-	8a\	De-	8ff#\	De-	8a\L	8dd\L
!	!	!	!	!	!	!	!	!	!LO:LB:g=original	!	!	!
=-	=-	=-	=-	=-	=-	=-	=-	=-	=-	=-	=-	=-
8G\	8g/	16gg\L	8G\	-us	8e\	-us	8b\	-us	16gg\LL	-us	8b\	8ee\
.	.	16ee\JJ	.	.	.	.	.	.	16ee\JJ	.	.	.
8A\	8f#/	8dd\L	8A\	Sa-	8f#\	Sa-	8.a\	Sa-	8dd\	Sa-	8a\	8dd\
8AA/J	8e/J	8cc#X\J	8AA/	-ba-	8e\	-ba-	.	.	8cc#X\	-ba-	8a\J	8cc#\J
.	.	.	.	.	.	.	16a\	-ba-	.	.	.	.
=6	=6	=6	=6	=6	=6	=6	=6	=6	=6	=6	=6	=6
!	!	!LO:TX:t=P:problem=mixed beam	!	!	!	!	!	!	!	!	!	!
4D/	8f#/L	8dd\L	4D/	-oth	4f#\	-oth	4a\	-oth	8dd\	-oth	4a\	4dd\
.	8d/	8d/	.	.	.	.	.	.	8d/	Do-	.	.
4r	8f#/	8f#/	4r	.	4r	.	4r	.	8f#/	-mi-	4r	4r
.	8a/J	8a/J	.	.	.	.	.	.	8a\	-n(us)	.	.
*	*	*	*	*	*	*	*	*	*2\right	*	*	*
8r	2ccn\	2ccn\	8r	.	8r	.	8r	.	2cc\	De-	8r	8r
8A\L	.	.	8A\	Do-	8d\	Do-	8a\	Do-	.	.	8a\L	8dd\L
8E\	.	.	8E\	-mi-	8d\	-mi-	8a\	-mi-	.	.	8a\	8dd\
8F#\J	.	.	8F#\	-nus	8d\	-nus	8a\	-n(us)	.	.	8a\J	8dd\J
!	!	!	!LO:PB:g=original	!	!	!	!LO:LB:g=original	!	!	!	!	!
=7	=7	=7	=7	=7	=7	=7	=7	=7	=7	=7	=7	=7
*	*	*	*	*	*	*	*	*	*	*	*^	*
!LO:TX:t=P:problem=mixed beam	!	!	!	!	!	!	!	!	!	!	!	!	!
8G\L	8b/L	8b/L	8G\	De-	8d\	De-	8g\	De-	8b\	.	8b\L	2rByy	8dd\L
8C\	8c/	16cc/L	8C/	-us	8e\	-us	8a\	-us	16cc\LL	-us	8a\	.	8cc\
.	.	16a/JJ	.	.	.	.	.	.	16b\JJ	.	.	.	.
8D\	8B/	8g/L	8.D/	Sa-	8.d\	Sa-	8.g\	Sa-	8g/	Sa-	8g\	.	8b\
8DD/J	8A/J	8f#/J	.	.	.	.	.	.	8f#/	-ba-	8d\J	.	8a\J
.	.	.	16D/	-ba-	16c\	-ba-	16f#\	-ba-	.	.	.	.	.
!	!	!	!	!	!	!	!	!	!	!	!LO:SIC:v:s=4d/	!	!
4GG/	8B/L	8g/L	4GG/	-oth	4B\	-oth	4g\	-oth	8g/	-oth	4c/	4B\	4b\
.	8g/	8g/J	.	.	.	.	.	.	(8g\	San-	.	.	.
4r	8b/	8b/L	4r	.	4r	.	4r	.	8b\)	.	4r	4ryy	4r
.	8dd/J	8dd/J	.	.	.	.	.	.	8dd\	-ctus	.	.	.
*	*	*	*	*	*	*	*	*	*	*	*v	*v	*
!	!	!LO:LB:g=original	!	!	!	!	!	!	!	!	!	!
=8	=8	=8	=8	=8	=8	=8	=8	=8	=8	=8	=8	=8
8r	2ee\	2gg\	8r	.	8r	.	8r	.	4gg\	Do-	8r	8r
8e\L	.	.	8e\	Do-	8e\	Do-	8a\	Do-	.	.	8a\L	8ee\L
8B\	.	.	8B\	-mi-	8e\	-mi-	8a\	-mi-	8gg\	-mi-	8a\	8cc#X\
8c#X\J	.	.	8c#X\	-nus	8e\	-nus	8a\	-n(us)	8gg\	-nus	8a\J	8cc#\J
!	!LO:LB:g=original	!	!	!	!	!	!	!	!	!	!	!
=-	=-	=-	=-	=-	=-	=-	=-	=-	=-	=-	=-	=-
!LO:TX:t=P:problem=mixed beam	!LO:TX:t=P:problem=mixed beam	!	!	!	!	!	!	!	!	!	!	!
8d\L	8dd\L	8ff#\L	8d\	De-	8f#\	De-	8a\	De-	8ff#\	De-	8a\L	8dd\L
8G\	8g/	16gg\L	8G\	-us	8g\	-us	8b\	-us	16gg\LL	-us	8b\	8ee\
.	.	16ee\JJ	.	.	.	.	.	.	16ee\JJ	.	.	.
8A\	8f#/	8dd\L	8A\	Sa-	8f#\	Sa-	8.a\	Sa-	8dd\	Sa-	8a\	8dd\
8AA/J	8e/J	8cc#X\J	8AA/	-ba-	8e\	-ba-	.	.	8cc#X\	-ba-	8a\J	8cc#\J
.	.	.	.	.	.	.	16a\	-ba-	.	.	.	.
=9	=9	=9	=9	=9	=9	=9	=9	=9	=9	=9	=9	=9
!	!	!LO:TX:t=P:problem=mixed beam	!	!	!	!	!	!	!	!	!	!
4D/	8f#/L	8dd\L	4D/	-oth	4f#\	-oth	4a\	-oth	8dd\	-oth	4a\	4dd\
.	8d/	8d/	.	.	.	.	.	.	8d/	Do-	.	.
4r	8f#/	8f#/	4r	.	4r	.	4r	.	8f#/	-mi-	4r	4r
.	8a/J	8a/J	.	.	.	.	.	.	8a\	-nus	.	.
8r	2cc\	2ccn\	8r	.	8r	.	8r	.	2cc\	De-	8r	8r
8A\L	.	.	8A\	Do-	8e\	Do-	8a\	Do-	.	.	8a\L	8dd\L
8E\	.	.	8E\	-mi-	8e\	-mi-	8a\	-mi-	.	.	8a\	8dd\
8F#\J	.	.	8F#\	-nus	8e\	-n(us)	8a\	-n(us)	.	.	8a\J	8dd\J
!	!	!	!	!	!	!	!	!	!LO:LB:g=original	!	!LO:LB:g=original	!LO:LB:g=original
=10	=10	=10	=10	=10	=10	=10	=10	=10	=10	=10	=10	=10
!LO:TX:t=P:problem=mixed beam	!	!	!	!	!	!	!	!	!	!	!	!
8G\L	8b/L	8b/L	8G\	De-	8d\	DE-	8g\	De-	8b\	-e-	8b\L	8dd\L
8C\	8c/	16cc/L	8C/	-us	8e\	-US	8a\	-us	16cc\LL	-us	8a\	8cc\
.	.	16a/JJ	.	.	.	.	.	.	16a\JJ	.	.	.
!	!	!	!	!	!	!LO:LB:g=original	!	!	!	!	!	!
=-	=-	=-	=-	=-	=-	=-	=-	=-	=-	=-	=-	=-
8D\	8B/	8g/L	8.D/	Sa-	8.d\	Sa-	8.g\	Sa-	8g/	Sa-	8g\	8b\
8DD/J	8A/J	8f#/J	.	.	.	.	.	.	8f#/	-ba-	8d\J	8a\J
.	.	.	16D/	-ba-	16d\	-ba-	16f#\	-ba-	.	.	.	.
!LO:LB:g=original	!	!	!	!	!	!	!	!	!	!	!	!
=-	=-	=-	=-	=-	=-	=-	=-	=-	=-	=-	=-	=-
4GG/	4B/	4g/	4GG/	-oth	4d\	-oth	4g\	-oth.	4g/	-oth	4B/	4b\
4r	4r	4r	4r	.	4r	.	4r	.	4r	.	4r	4r
=11	=11	=11	=11	=11	=11	=11	=11	=11	=11	=11	=11	=11
*coll8ba	*	*	*	*	*	*	*	*	*	*	*	*
!LO:TX:a:t=8	!	!	!	!	!	!	!	!	!	!	!	!
4D\ 4DDyy	4dd\	4ddd\	4D/	Ple-	4d\	Ple-	4dd\	Ple-	4dd\	Ple-	4dd\	4dd\
!LO:TX:t=P::problem=ukryte 1 ósemki pod belką a nie wyświetlają się żadne&colon;global 	!	!	!	!	!	!	!	!	!	!	!	!
!LO:TX:a:t=8	!	!	!	!	!	!	!	!	!	!	!	!
8BB\L 8BBByy	8b\L	8bb\L	8BB/	-ni	8B\	-ni	8b\	-ni	8b\	-ni	8b\L	8b\L
!LO:TX:a:t=8	!	!	!	!	!	!	!	!	!	!	!	!
8C\J 8CCyy	8cc\J	8ccc\J	8C/	Sunt	8c\	Sunt	8cc\	ſunt	8cc\	sunt	8cc\J	8cc\J
!	!	!	!LO:LB:g=original	!	!	!	!	!	!	!	!	!
=-	=-	=-	=-	=-	=-	=-	=-	=-	=-	=-	=-	=-
!LO:TX:a:t=8	!	!	!	!	!	!	!	!	!	!	!	!
4D\ 4DDyy	4dd\	4ddd\	4D/	Cae-	4d\	Cae-	4dd\	Cae-	4dd\	Cae-	4dd\	4dd\
!LO:TX:a:t=8	!	!	!	!	!	!	!	!	!	!	!	!
8BB\L 8BBByy	8b\L	8bb\L	8BB/	-li	8B\	-li	8b\	-li	8b\	-li	8b\L	8b\L
!LO:TX:a:t=8	!	!	!	!	!	!	!	!	!	!	!	!
8C\J 8CCyy	8cc\J	8ccc\J	8C/	(et)	8c\	(et)	8cc\	(et)	8cc\	(et)	8cc\J	8cc\J
!	!	!	!	!	!	!	!LO:LB:g=original	!	!	!	!	!
=12	=12	=12	=12	=12	=12	=12	=12	=12	=12	=12	=12	=12
!LO:TX:a:t=8	!	!	!	!	!	!	!	!	!	!	!	!
8D/ 8DDyy	8.dd\L	8.ddd\L	8.D/L	ter-	8.d\L	ter-	8.dd\L	ter-	8.dd\L	ter-	8.dd\L	8dd\L
!LO:TX:a:t=8	!	!	!	!	!	!	!	!	!	!	!	!
8C/ 8CCyy	.	.	.	.	.	.	.	.	.	.	.	8cc\
.	16cc\Jk	16ccc\K	16C/K	.	16c\Jk	.	16cc\Jk	.	16cc\Jk	.	16cc\Jk	.
!LO:TX:a:t=8	!	!	!	!	!	!	!	!	!	!	!	!
8BB/ 8BBByy	8b/L	8.bb\	8.BB/	.	8B\L	.	8.b\L	.	8.b\L	.	8.b\L	8b\
!LO:TX:a:t=8	!	!	!	!	!	!	!	!	!	!	!	!
8AA/ 8AAAyy	8a/J	.	.	.	8A\J	.	.	.	.	.	.	8a\J
.	.	16aa\Jk	16AA/Jk	.	.	.	16a\Jk	.	16a\Jk	.	16a\Jk	.
!LO:TX:a:t=8	!	!	!	!	!	!	!	!	!	!	!	!
2GG/ 2GGGyy	4.g/	4.gg\	2GG/	-ra	2G/	-ra	2g\	.	2g\	[[-ra]]	2g\	2g\
.	16b/LL	16bb\LL	.	.	.	.	.	.	.	.	.	.
.	16a/JJ	16aa\JJ	.	.	.	.	.	.	.	.	.	.
*Xcoll8ba	*	*	*	*	*	*	*	*	*	*	*	*
=13	=13	=13	=13	=13	=13	=13	=13	=13	=13	=13	=13	=13
2GG/	8g/L	8gg\L	1GG	.	1d	glo-	1g	.	1b	-ra	1g	1b
.	8f#/	8ff#\	.	.	.	.	.	.	.	.	.	.
.	8e/	8ee\	.	.	.	.	.	.	.	.	.	.
!	!LO:TX:a:t=bis	!	!	!	!	!	!	!	!	!	!	!
.	8d/J	8dd\J	.	.	.	.	.	.	.	.	.	.
2GG/	16g/LL	16gg\LL	.	.	.	.	.	.	.	.	.	.
.	16f#/	16ff#\	.	.	.	.	.	.	.	.	.	.
.	16g/	16gg\	.	.	.	.	.	.	.	.	.	.
.	16a/JJ	16aa\JJ	.	.	.	.	.	.	.	.	.	.
.	8g/L	8gg\L	.	.	.	.	.	.	.	.	.	.
.	16b/L	16bb\L	.	.	.	.	.	.	.	.	.	.
.	16a/JJ	16aa\JJ	.	.	.	.	.	.	.	.	.	.
=14	=14	=14	=14	=14	=14	=14	=14	=14	=14	=14	=14	=14
!	!LO:TX:t=P:problem=takt 14 zapisany repetycją adnotacja "bis" 	!	!	!	!	!	!	!	!	!	!	!
2GG/	8g/Lyy	8gg\L	1GG	.	1d	.	1g	.	1b	.	1g	1b
!	!	!LO:TX:a:t=bis	!	!	!	!	!	!	!	!	!	!
.	8f#/yy	8ff#\	.	.	.	.	.	.	.	.	.	.
.	8e/yy	8ee\	.	.	.	.	.	.	.	.	.	.
.	8d/Jyy	8dd\J	.	.	.	.	.	.	.	.	.	.
2GG/	16g/LLyy	4.gg\	.	.	.	.	.	.	.	.	.	.
.	16f#/yy	.	.	.	.	.	.	.	.	.	.	.
.	16g/yy	.	.	.	.	.	.	.	.	.	.	.
.	16a/JJyy	.	.	.	.	.	.	.	.	.	.	.
.	8g/Lyy	.	.	.	.	.	.	.	.	.	.	.
.	16b/Lyy	16bb\LL	.	.	.	.	.	.	.	.	.	.
.	16a/JJyy	16aa\JJ	.	.	.	.	.	.	.	.	.	.
=15	=15	=15	=15	=15	=15	=15	=15	=15	=15	=15	=15	=15
!	!	!LO:TX:t=P:problem=takt 15 zapisany repetycją adnotacja "bis" 	!	!	!	!	!	!	!	!	!	!
1GG	8g/L	8gg\Lyy	1GG	.	1d	-ri-	1g	.	1b	.	1g	1b
.	8f#/	8ff#\yy	.	.	.	.	.	.	.	.	.	.
.	8e/	8ee\yy	.	.	.	.	.	.	.	.	.	.
.	8d/J	8dd\Jyy	.	.	.	.	.	.	.	.	.	.
.	16g/LL	4.gg\yy	.	.	.	.	.	.	.	.	.	.
.	16f#/	.	.	.	.	.	.	.	.	.	.	.
.	16g/	.	.	.	.	.	.	.	.	.	.	.
.	16a/JJ	.	.	.	.	.	.	.	.	.	.	.
.	8g/L	.	.	.	.	.	.	.	.	.	.	.
.	16b/L	16bb\LLyy	.	.	.	.	.	.	.	.	.	.
.	16a/JJ	16aa\JJyy	.	.	.	.	.	.	.	.	.	.
=16	=16	=16	=16	=16	=16	=16	=16	=16	=16	=16	=16	=16
1GG	8g/L	8gg\L	1GG	.	1d	-a	1g	-ra	1b	.	1g	1b
.	8f#/	8ff#\	.	.	.	.	.	.	.	.	.	.
.	8e/	8ee\	.	.	.	.	.	.	.	.	.	.
.	8d/J	8dd\J	.	.	.	.	.	.	.	.	.	.
.	2g/	2gg\	.	.	.	.	.	.	.	.	.	.
=17	=17	=17	=17	=17	=17	=17	=17	=17	=17	=17	=17	=17
*coll8ba	*	*	*	*	*	*	*	*	*	*	*	*
!LO:TX:a:t=8	!	!	!	!	!	!	!	!	!	!	!	!
4AA/ 4AAAyy	4a/	4aa\	4A\	Ple-	4A/	Ple-	4a\	Ple-	4aa\	Ple-	4d/	4a\
!LO:TX:a:t=8	!	!	!	!	!	!	!	!	!	!	!	!
8FF#/L 8FFF#yy	8f#/L	8ff#\L	8F#\	-ni	8F#/	-ni	8f#\	-ni	8ff#\	-ni	8d/L	8a\L
!LO:TX:a:t=8	!	!	!	!	!	!	!	!	!	!	!	!
8GG/J 8GGGyy	8g/J	8gg\J	8G\	ſunt	8G/	S(un)t	8g\	ſunt	8gg\	ſunt	8d/J	8a\J
!LO:TX:a:t=8	!	!	!	!	!	!	!	!	!	!	!	!
4AA/ 4AAAyy	4a/	4aa\	4A\	Cae-	4A/	Cae-	4a\	Cae-	4aa\	Cae-	4d/	4a\
!LO:TX:a:t=8	!	!	!	!	!	!	!	!	!	!	!	!
8FF#/L 8FFF#yy	8f#/L	8ff#\L	8F#\	-li	8F#/	-li	8f#\	-li	8ff#\	-li	8d/L	8a\L
!LO:TX:a:t=8	!	!	!	!	!	!	!	!	!	!	!	!
8GG/J 8GGGyy	8g/J	8gg\J	8G\	(et)	8G/	(et)	8g\	(et)	8gg\	(et)	8d/J	8a\J
!	!	!LO:LB:g=original	!	!	!	!	!	!	!	!	!	!
=18	=18	=18	=18	=18	=18	=18	=18	=18	=18	=18	=18	=18
!LO:TX:a:t=8	!	!	!	!	!	!	!	!	!	!	!	!
8.AA/L 8.AAAyy	8.a/L	8.aa\L	8.A\L	ter-	8.A/L	ter-	8.a\L	ter-	8.aa\L	ter-	8a\L	8.a\L
.	.	.	.	.	.	.	.	.	.	.	8a\	.
!LO:TX:a:t=8	!	!	!	!	!	!	!	!	!	!	!	!
16GG/Jk 16GGGyy	16g/Jk	16gg\	16G\K	.	16G/K	.	16g\K	.	16gg\Jk	.	.	16a\K
!	!LO:LB:g=original	!	!	!	!	!	!	!	!	!	!	!
=-	=-	=-	=-	=-	=-	=-	=-	=-	=-	=-	=-	=-
!LO:TX:a:t=8	!	!	!	!	!	!	!	!	!	!	!	!
8.FF#/L 8.FFF#yy	8.f#/L	8.ff#	8.F#\	.	8.F#/	.	8.f#\	.	8.ff#\L	.	8a\	8a\
.	.	.	.	.	.	.	.	.	.	.	8a\J	8a\J
!LO:TX:a:t=8	!	!	!	!	!	!	!	!	!	!	!	!
16EE/Jk 16EEEyy	16e/Jk	16ee\Jk	16E\Jk	.	16E/Jk	.	16e\Jk	.	16ee\Jk	.	.	.
!LO:LB:g=original	!	!	!	!	!	!	!	!	!	!	!	!
=-	=-	=-	=-	=-	=-	=-	=-	=-	=-	=-	=-	=-
!LO:TX:a:t=8	!	!	!	!	!	!	!	!	!	!	!	!
2DD/ 2DDDyy	4.d/	4.dd\	2D/	-ra	2D/	-ra	2d\	-ra	2dd\	-ra	2d/	2a\
.	16f#/LL	16ff#\LL	.	.	.	.	.	.	.	.	.	.
.	16e/JJ	16ee\JJ	.	.	.	.	.	.	.	.	.	.
*Xcoll8ba	*	*	*	*	*	*	*	*	*	*	*	*
!	!	!	!	!	!	!	!	!	!LO:LB:g=original	!	!	!
=19	=19	=19	=19	=19	=19	=19	=19	=19	=19	=19	=19	=19
!LO:TX:t=P:problem=takty 19-21 zapisane skrótem w jednym takcie adnotacja "3"	!	!	!	!	!	!	!	!	!	!	!	!
!LO:TX:a:t=3	!	!	!	!	!	!	!	!	!	!	!	!
0.DD 0.D	8d/L	8dd\L	1D	glo-	1d	glo-	1a	glo-	1ff#	glo-	1d	1a
.	8c/	8cc\	.	.	.	.	.	.	.	.	.	.
.	8B/	8b\	.	.	.	.	.	.	.	.	.	.
.	8A/J	8a\J	.	.	.	.	.	.	.	.	.	.
.	8.d/L	16dd\LL	.	.	.	.	.	.	.	.	.	.
!	!	!LO:SIC:v:s=16cc#\	!	!	!	!	!	!	!	!	!	!
.	.	16cc\	.	.	.	.	.	.	.	.	.	.
.	.	16dd\	.	.	.	.	.	.	.	.	.	.
!	!LO:SIC:v:s=16c#/Jk	!	!	!	!	!	!	!	!	!	!	!
.	16c/Jk	16ee\JJ	.	.	.	.	.	.	.	.	.	.
.	8d/L	8dd\L	.	.	.	.	.	.	.	.	.	.
.	16f#/L	16ff#\L	.	.	.	.	.	.	.	.	.	.
.	16e/JJ	16ee\JJ	.	.	.	.	.	.	.	.	.	.
=20	=20	=20	=20	=20	=20	=20	=20	=20	=20	=20	=20	=20
.	8d/L	8dd\L	1D	.	1d	.	1a	.	1ff#	.	1d	1a
.	8c/	8cc\	.	.	.	.	.	.	.	.	.	.
.	8B/	8b\	.	.	.	.	.	.	.	.	.	.
!	!LO:TX:a:t=bis	!	!	!	!	!	!	!	!	!	!	!
.	8A/J	8a\J	.	.	.	.	.	.	.	.	.	.
.	16d/LL	4.dd\	.	.	.	.	.	.	.	.	.	.
!	!LO:SIC:v:s=16c#/	!	!	!	!	!	!	!	!	!	!	!
.	16c/	.	.	.	.	.	.	.	.	.	.	.
.	16d/	.	.	.	.	.	.	.	.	.	.	.
.	16e/JJ	.	.	.	.	.	.	.	.	.	.	.
.	8d/L	.	.	.	.	.	.	.	.	.	.	.
.	16f#/L	16ff#\LL	.	.	.	.	.	.	.	.	.	.
.	16e/JJ	16ee\JJ	.	.	.	.	.	.	.	.	.	.
=21	=21	=21	=21	=21	=21	=21	=21	=21	=21	=21	=21	=21
!	!LO:TX:t=P:problem=takt 21 zapisany repetycją adnotacja "bis" 	!	!	!	!	!	!	!	!	!	!	!
.	8d/Lyy	8dd\L	1D	.	1d	.	1a	.	1ff#	.	1d	1a
.	8c/yy	8cc\	.	.	.	.	.	.	.	.	.	.
.	8B/yy	8b\	.	.	.	.	.	.	.	.	.	.
.	8A/Jyy	8a\J	.	.	.	.	.	.	.	.	.	.
.	16d/LLyy	16dd\LL	.	.	.	.	.	.	.	.	.	.
!	!LO:SIC:v:s=16c#/yy	!LO:SIC:v:s=16cc#\	!	!	!	!	!	!	!	!	!	!
.	16c/yy	16cc\	.	.	.	.	.	.	.	.	.	.
.	16d/yy	16dd\	.	.	.	.	.	.	.	.	.	.
.	16e/JJyy	16ee\JJ	.	.	.	.	.	.	.	.	.	.
.	8d/Lyy	8dd\L	.	.	.	.	.	.	.	.	.	.
.	16f#/Lyy	16ff#\L	.	.	.	.	.	.	.	.	.	.
.	16e/JJyy	16ee\JJ	.	.	.	.	.	.	.	.	.	.
!	!	!	!LO:LB:g=original	!	!	!	!	!	!	!	!	!
=22	=22	=22	=22	=22	=22	=22	=22	=22	=22	=22	=22	=22
*^	*^	*^	*	*	*	*	*	*	*	*	*	*
2D/	2DD/	8d/L	2rFyy	8dd\L	2rgyy	4.D/	.	4.d\	.	4.a\	.	2ff#\	-ri-	1d	1a
.	.	8c/	.	8cc\	.	.	.	.	.	.	.	.	.	.	.
.	.	8B/	.	8b\	.	.	.	.	.	.	.	.	.	.	.
.	.	8A/J	.	8a\J	.	8D/	-ri-	8d\	-ri-	8a\	-ri-	.	.	.	.
4.D/	[2DD/	2a/	2f#\	2dd/	2f#\	4D/	-a	4d\	-a	4a\	-a	4.ff#\	-a	.	.
.	.	.	.	.	.	8r	.	8r	.	8r	.	.	.	.	.
16F#/LL	.	.	.	.	.	16G\LL	glo-	16f#\LL	glo-	16f#\LL	glo-	16ff#\LL	glo-	.	.
16E/JJ	.	.	.	.	.	16F#\JJ	.	16e\JJ	.	16e\JJ	.	16ee\JJ	.	.	.
!	!	!	!	!	!	!	!	!	!	!LO:LB:g=original	!	!	!	!	!
=23	=23	=23	=23	=23	=23	=23	=23	=23	=23	=23	=23	=23	=23	=23	=23
8D/L	1DD_	2a/	2f#\	2dd/	2f#\	8D/L	.	8d\L	.	8d\L	.	8dd\L	.	1d	1a
8C/	.	.	.	.	.	8C/	.	8c\	.	8c\	.	8cc\	.	.	.
8BB/	.	.	.	.	.	8BB/	.	8B\	.	8B\	.	8b\	.	.	.
8AA/J	.	.	.	.	.	8AA/J	.	8A\J	.	8A\J	.	8a\J	.	.	.
16D/LL	.	2a/	2f#\	2dd/	2f#\	16D\LL	.	16d\LL	.	16d\LL	.	16dd\LL	.	.	.
!LO:SIC:v:s=16C#/	!	!	!	!	!	!LO:SIC:v:s=16C#\	!	!LO:SIC:v:s=16c#\	!	!	!	!LO:SIC:v:s=16cc#\	!	!	!
16C/	.	.	.	.	.	16C\	.	16c\	.	16c#X\	.	16cc\	.	.	.
16D/	.	.	.	.	.	16D\	.	16d\	.	16d\	.	16dd\	.	.	.
16E/JJ	.	.	.	.	.	16E\JJ	.	16e\JJ	.	16e\JJ	.	16ee\JJ	.	.	.
8D/L	.	.	.	.	.	8D\L	.	8d\L	.	8d\L	.	8dd\L	.	.	.
16F#/L	.	.	.	.	.	16F#\L	.	16f#\L	.	16f#\L	.	16ff#\L	.	.	.
16E/JJ	.	.	.	.	.	16E\JJ	.	16e\JJ	.	16e\JJ	.	16ee\JJ	.	.	.
=24	=24	=24	=24	=24	=24	=24	=24	=24	=24	=24	=24	=24	=24	=24	=24
8D/L	1DD_	1a	1f#	2dd/	2f#\	8D/L	.	8d\L	.	8d\L	.	8dd\L	.	1d	1a
8C/	.	.	.	.	.	8C/	.	8c\	.	8c\	.	8cc\	.	.	.
8BB/	.	.	.	.	.	8BB/	.	8B\	.	8B\	.	8b\	.	.	.
8AA/J	.	.	.	.	.	8AA/J	.	8A\J	.	8A\J	.	8a\J	.	.	.
!	!	!	!	!	!	!	!	!LO:LB:g=original	!	!	!	!	!	!	!
=-	=-	=-	=-	=-	=-	=-	=-	=-	=-	=-	=-	=-	=-	=-	=-
4.D/	.	.	.	2dd/	2f#\	4.D\	.	4.d\	.	16d\LL	.	16dd\LL	.	.	.
!	!	!	!	!	!	!	!	!	!	!LO:SIC:v:s=16c#\	!	!LO:SIC:v:s=16cc#\	!	!	!
.	.	.	.	.	.	.	.	.	.	16c\	.	16cc\	.	.	.
.	.	.	.	.	.	.	.	.	.	16d\	.	16dd\	.	.	.
.	.	.	.	.	.	.	.	.	.	16e\JJ	.	16ee\JJ	.	.	.
.	.	.	.	.	.	.	.	.	.	8d\L	.	8dd\L	.	.	.
16F#/LL	.	.	.	.	.	16F#\LL	.	16f#\LL	.	16f#\L	.	16ff#\L	.	.	.
16E/JJ	.	.	.	.	.	16E\JJ	.	16e\JJ	.	16e\JJ	.	16ee\JJ	.	.	.
=25	=25	=25	=25	=25	=25	=25	=25	=25	=25	=25	=25	=25	=25	=25	=25
8D/L	1DD_	1a	1f#	2dd/	2f#\	8D/L	.	8d\L	.	8d\L	.	8dd\L	.	1d	1a
8C/	.	.	.	.	.	8C/	.	8c\	.	8c\	.	8cc\	.	.	.
8BB/	.	.	.	.	.	8BB/	.	8B\	.	8B\	.	8b\	.	.	.
8AA/J	.	.	.	.	.	8AA/J	.	8A\J	.	8A\J	.	8a\J	.	.	.
16D/LL	.	.	.	2dd/	2f#\	16D\LL	.	16d\LL	.	16d\LL	.	16dd\LL	.	.	.
!LO:SIC:v:s=16C#/	!	!	!	!	!	!LO:SIC:v:s=16C#\	!	!	!	!	!	!LO:SIC:v:s=16cc#\	!	!	!
16C/	.	.	.	.	.	16C\	.	16c#X\	.	16c#X\	.	16cc\	.	.	.
16D/	.	.	.	.	.	16D\	.	16d\	.	16d\	.	16dd\	.	.	.
16E/JJ	.	.	.	.	.	16E\JJ	.	16e\JJ	.	16e\JJ	.	16ee\JJ	.	.	.
8D/L	.	.	.	.	.	8D\L	.	8d\L	.	8d\L	.	8dd\L	.	.	.
16F#/L	.	.	.	.	.	16F#\L	.	16f#\L	.	16f#\L	.	16ff#\L	.	.	.
16E/JJ	.	.	.	.	.	16E\JJ	.	16e\JJ	.	16e\JJ	.	16ee\JJ	.	.	.
!LO:LB:g=original	!	!	!	!	!	!	!	!	!	!	!	!	!	!	!
=26	=26	=26	=26	=26	=26	=26	=26	=26	=26	=26	=26	=26	=26	=26	=26
8D/L	1DD]	2a/	2f#\	2dd/	2f#\	8D/L	.	8d\L	.	8d\L	.	8dd\L	.	2d/	2a\
8C#X/	.	.	.	.	.	8C/J	.	8c\	.	8c\	.	8cc\	.	.	.
8BB/	.	.	.	.	.	8BB/	-ri-	8B\	.	8B\	.	8b\	-ri-	.	.
8AA/J	.	.	.	.	.	8AA/	-a	8A\J	.	8A\J	-ri-	8a\J	.	.	.
!	!	!	!	!	!	!LO:LB:g=original	!	!	!	!	!	!	!	!	!
=-	=-	=-	=-	=-	=-	=-	=-	=-	=-	=-	=-	=-	=-	=-	=-
2D/	.	4.a/	4.f#\	4.dd/	4.f#\	2D/	tu-	2d\	.	2d\	-a	2dd\	-a	4.d/	4a\
.	.	.	.	.	.	.	.	.	.	.	.	.	.	.	4b\
.	.	16b/LL	8ryy	16bb\LL	8ryy	.	.	.	.	.	.	.	.	8g\	.
.	.	16a/JJ	.	16aa\JJ	.	.	.	.	.	.	.	.	.	.	.
*v	*v	*	*	*v	*v	*	*	*	*	*	*	*	*	*	*
*	*v	*v	*	*	*	*	*	*	*	*	*	*	*
!	!	!	!	!	!	!	!	!	!LO:LB:g=original	!	!	!LO:LB:g=original
=27	=27	=27	=27	=27	=27	=27	=27	=27	=27	=27	=27	=27
1GG 1G	8g/L	8gg\L	1GG	-a	1d	.	1b	glo-	1gg	glo-	1g	1b
.	8f#/	8ff#\	.	.	.	.	.	.	.	.	.	.
.	8e/	8ee\	.	.	.	.	.	.	.	.	.	.
.	8d/J	8dd\J	.	.	.	.	.	.	.	.	.	.
.	16g/LL	16gg\LL	.	.	.	.	.	.	.	.	.	.
.	16f#/	16ff#\	.	.	.	.	.	.	.	.	.	.
.	16g/	16gg\	.	.	.	.	.	.	.	.	.	.
.	16a/JJ	16aa\JJ	.	.	.	.	.	.	.	.	.	.
.	8g/L	8gg\L	.	.	.	.	.	.	.	.	.	.
.	16b/L	16bb\L	.	.	.	.	.	.	.	.	.	.
.	16a/JJ	16aa\JJ	.	.	.	.	.	.	.	.	.	.
!	!	!LO:LB:g=original	!	!	!	!	!	!	!	!	!LO:LB:g=original	!
=28	=28	=28	=28	=28	=28	=28	=28	=28	=28	=28	=28	=28
1GG 1G	8g/L	8gg\L	1GG	.	1d	.	1b	.	1gg	.	1g	1b
.	8f#/	8ff#\	.	.	.	.	.	.	.	.	.	.
.	8e/	8ee\	.	.	.	.	.	.	.	.	.	.
.	8d/J	8dd\J	.	.	.	.	.	.	.	.	.	.
!	!LO:TX:a:t=bis	!	!	!	!	!	!	!	!	!	!	!
.	16g/LL	4.gg\	.	.	.	.	.	.	.	.	.	.
.	16f#/	.	.	.	.	.	.	.	.	.	.	.
.	16g/	.	.	.	.	.	.	.	.	.	.	.
.	16a/JJ	.	.	.	.	.	.	.	.	.	.	.
.	8g/L	.	.	.	.	.	.	.	.	.	.	.
.	16b/L	16bb\LL	.	.	.	.	.	.	.	.	.	.
.	16a/JJ	16aa\JJ	.	.	.	.	.	.	.	.	.	.
!	!LO:LB:g=original	!	!	!	!	!	!LO:LB:g=original	!	!	!	!	!
=29	=29	=29	=29	=29	=29	=29	=29	=29	=29	=29	=29	=29
!	!LO:TX:t=P:problem=takt 29 zapisany repetycją adnotacja "bis" 	!	!	!	!	!	!	!	!	!	!	!
1GG 1G	8g/Lyy	8gg\L	1GG	.	1d	.	1b	.	1gg	.	1g	1b
.	8f#/yy	8ff#\	.	.	.	.	.	.	.	.	.	.
.	8e/yy	8ee\	.	.	.	.	.	.	.	.	.	.
.	8d/Jyy	8dd\J	.	.	.	.	.	.	.	.	.	.
.	16g/LLyy	16gg\LL	.	.	.	.	.	.	.	.	.	.
.	16f#/yy	16ff#\	.	.	.	.	.	.	.	.	.	.
.	16g/yy	16gg\	.	.	.	.	.	.	.	.	.	.
.	16a/JJyy	16aa\JJ	.	.	.	.	.	.	.	.	.	.
.	8g/Lyy	8gg\L	.	.	.	.	.	.	.	.	.	.
.	16b/Lyy	16bb\L	.	.	.	.	.	.	.	.	.	.
.	16a/JJyy	16aa\JJ	.	.	.	.	.	.	.	.	.	.
=30	=30	=30	=30	=30	=30	=30	=30	=30	=30	=30	=30	=30
1GG 1G	8g/L	8gg\L	4.GG/	glo-	4.d\	.	4.b\	.	4gg\	.	1g	1b
.	8f#/	8ff#\	.	.	.	.	.	.	.	.	.	.
.	8e/	8ee\	.	.	.	.	.	.	4gg\	-ri-	.	.
.	8d/J	8dd\J	8GG/	-ri-	8d\	-ri-	8b\	-ri-	.	.	.	.
.	2g/	2gg\	2GG/	-a	2d\	-a	2b\	-a	2gg\	-a	.	.
=31	=31	=31	=31	=31	=31	=31	=31	=31	=31	=31	=31	=31
*coll8ba	*	*	*	*	*	*	*	*	*	*	*	*
!LO:TX:b:t=8	!	!	!	!	!	!	!	!	!	!	!	!
4D/ 4DDyy	4dd\	4ddd\	4D/	Ple-	4d\	ple-	4d\	Ple-	4dd\	Ple-	4dd\	4dd\
!LO:TX:b:t=8	!	!	!	!	!	!	!	!	!	!	!	!
8BB/L 8BBByy	8b\L	8bb\L	8BB/	-ni	8B\	-ni	8B/	-ni	8b\	-ni	8b\L	8b\L
!LO:TX:b:t=8	!	!	!	!	!	!	!	!	!	!	!	!
8C/J 8CCyy	8cc\J	8ccc\J	8C/	ſunt	8c\	Sunt	8c/	ſunt	8cc\	sunt,	8cc\J	8cc\J
!LO:TX:b:t=8	!	!	!	!	!	!	!	!	!	!	!	!
4D/ 4DDyy	4dd\	4ddd\	4D/	Cae-	4d\	Cae-	4d\	Cae-	4dd\	Cae-	4dd\	4dd\
!LO:TX:b:t=8	!	!	!	!	!	!	!	!	!	!	!	!
8BB/L 8BBByy	8b\L	8bb\L	8BB/	-li	8B\	-li	8B/	-li	8b\	-li	8b\L	8b\L
!LO:TX:b:t=8	!	!	!	!	!	!	!	!	!	!	!	!
8C/J 8CCyy	8cc\J	8ccc\J	8C/	(et)	8c\	(et)	8c/	(et)	8cc\	(et)	8cc\J	8cc\J
=32	=32	=32	=32	=32	=32	=32	=32	=32	=32	=32	=32	=32
*^	*	*	*	*	*	*	*	*	*	*	*	*
!LO:TX:b:t=8	!	!	!	!	!	!	!	!	!	!	!	!	!
8.D/L 8.DDyy	2rGGyy	8.dd\L	8.ddd\L	8.D/L	ter-	8.d\L	ter-	8.d\L	ter-	8.dd\L	ter-	8.dd\L	8dd\L
.	.	.	.	.	.	.	.	.	.	.	.	.	8cc\
!LO:TX:b:t=8	!	!	!	!	!	!	!	!	!	!	!	!	!
16C/Jk 16CCyy	.	16cc\K	16ccc\K	16C/K	.	16c\K	.	16c\Jk	.	16cc\Jk	.	16cc\Jk	.
!LO:TX:b:t=8	!	!	!	!	!	!	!	!	!	!	!	!	!
8.BB/L 8.BBByy	.	8.b\	8.bb\	8.BB/	.	8.B\	.	8.B/L	.	8.b\L	.	8.b\L	8b\
.	.	.	.	.	.	.	.	.	.	.	.	.	8a\J
!LO:TX:b:t=8	!	!	!	!	!	!	!	!	!	!	!	!	!
16AA/Jk 16AAAyy	.	16a\Jk	16aa\Jk	16AA/Jk	.	16A\Jk	.	16A/Jk	.	16a\Jk	.	16a\Jk	.
*Xcoll8ba	*2\right	*	*	*	*	*	*	*	*	*	*	*	*
2D/ 2G	2GG\	2g/	2gg\	2GG/	-ra.	2G/	-ra	2G/	-ra	2g/	-ra.	2g\	2g\
*v	*v	*	*	*	*	*	*	*	*	*	*	*	*
==	==	==	==	==	==	==	==	==	==	==	==	==
*-	*-	*-	*-	*-	*-	*-	*-	*-	*-	*-	*-	*-
!!!system-decoration: [(s1,s2)][(s3,s4,s5,s6)][(s7,s8)](s9)
!!!RDF**kern: < = below
!!!RDF**kern: > = above
!!!ENC: Andrzej Kubiczek
!!!END: 2020-07-26
!!!ENC: Marta Chmielewska
!!!END: 2022-03-03
!!!YEC: Copyright 2022 Narodowy Instytut Fryderyka Chopina (https://polishscores.org)
!!!YEM: License CC-BY-4.0 (https://creativecommons.org/licenses/by/4.0)
